icon-svg/rollsroyce.svg

<svg xmlns="http://www.w3.org/2000/svg" viewBox="0 0 24 24"><path fill="#44739e" d="M10.411 20.213a.48.48 0 0 0 .347-.144.56.56 0 0 0 .146-.434.6.6 0 0 0-.146-.446.47.47 0 0 0-.347-.134.48.48 0 0 0-.358.134.6.6 0 0 0-.145.446.57.57 0 0 0 .145.434.5.5 0 0 0 .358.144m-3.47.057a.667.667 0 0 0 .667.666h8.784a.67.67 0 0 0 .676-.666v-1.951H6.941Zm7.936-1.47H16.2v.366a.7.7 0 0 0-.473-.1h-.377v.415h.676l-.039.252h-.638v.454h.425c.213 0 .4-.009.495-.136l-.058.407h-1.334A.5.5 0 0 0 15 20.1v-.929a.52.52 0 0 0-.123-.371m-.844-.039a1 1 0 0 1 .492.1v.358a.63.63 0 0 0-.5-.175.588.588 0 0 0 0 1.17.76.76 0 0 0 .56-.184l-.059.378a1.2 1.2 0 0 1-.491.086.871.871 0 0 1-.63-1.517.93.93 0 0 1 .628-.213Zm-2.144.039a.12.12 0 0 0-.058.077c-.009.048.03.107.069.164l.327.482.33-.473a.3.3 0 0 0 .057-.154c.011-.038-.01-.067-.048-.1h.6a1.3 1.3 0 0 0-.3.329l-.493.7v.275a.5.5 0 0 0 .125.357h-.6a.5.5 0 0 0 .125-.357v-.271l-.543-.762a.6.6 0 0 0-.26-.261Zm-2.049.145a.866.866 0 0 1 1.43.687.88.88 0 0 1-1.43.675.84.84 0 0 1-.3-.675.89.89 0 0 1 .3-.684ZM7.666 18.8h.841a1.5 1.5 0 0 1 .464.038.45.45 0 0 1 .271.455.424.424 0 0 1-.387.416c.116.048.184.173.262.328a1 1 0 0 0 .3.425l-.493-.01c-.105-.154-.173-.357-.26-.5a.28.28 0 0 0-.27-.155h-.255v.3a.52.52 0 0 0 .126.367h-.6a.52.52 0 0 0 .126-.367v-.929a.47.47 0 0 0-.125-.368m1.208.505c0-.173-.135-.232-.348-.232h-.387v.464h.387c.213 0 .348-.068.348-.232M16.392 2H7.609a1.73 1.73 0 0 0-1.73 1.729V20.27A1.73 1.73 0 0 0 7.609 22h8.783a1.73 1.73 0 0 0 1.729-1.73V3.729A1.73 1.73 0 0 0 16.392 2m1.149 18.27a1.143 1.143 0 0 1-1.149 1.139H7.609a1.14 1.14 0 0 1-1.141-1.139V3.729a1.1 1.1 0 0 1 .138-.543q.027-.049.057-.094t.066-.088a1 1 0 0 1 .074-.081 1 1 0 0 1 .169-.139 1 1 0 0 1 .193-.1q.053-.022.1-.039a1.2 1.2 0 0 1 .339-.051h8.783a1.144 1.144 0 0 1 1.149 1.14Zm-.475-14.116H6.941v11.692h10.125ZM11.87 17.13H9.61a1.15 1.15 0 0 0 .589-1.149v-3.574a9 9 0 0 0 1.082-.174v.542c.156-.011.309-.011.455-.03.1.193.193.4.279.6-.241.02-.483.029-.734.038v2.6a1.16 1.16 0 0 0 .589 1.147m.418-1.18a1.45 1.45 0 0 0 .327-1.285 5.76 5.76 0 0 0-1.131-2.724 8.7 8.7 0 0 1-2.165.262v2.6a1.15 1.15 0 0 0 .589 1.148h-2.26a1.14 1.14 0 0 0 .589-1.151V8.1a1.15 1.15 0 0 0-.589-1.149H10.9a3.6 3.6 0 0 1 2.039.474 2.25 2.25 0 0 1 .985 1.864 2.59 2.59 0 0 1-1.553 2.311c-.037.019-.066.03-.105.048a7.7 7.7 0 0 1 1.487 3.324 1.66 1.66 0 0 0 .532.976Zm2.251 1.174a1.4 1.4 0 0 0 .327-1.276 5.83 5.83 0 0 0-1.226-2.8l-.2.057a9 9 0 0 0-.3-.619 2.09 2.09 0 0 0 1.651-2.009 1.65 1.65 0 0 0-.609-1.353 2.5 2.5 0 0 0-.241-.909 2.8 2.8 0 0 1 .966.377 2.27 2.27 0 0 1 .985 1.864 2.57 2.57 0 0 1-1.478 2.27 7.6 7.6 0 0 1 1.594 3.422 1.77 1.77 0 0 0 .532.975ZM10.536 3.758a.5.5 0 0 0-.367.145.63.63 0 0 0-.154.464.6.6 0 0 0 .154.464.52.52 0 0 0 .367.145.5.5 0 0 0 .366-.145.6.6 0 0 0 .164-.464.63.63 0 0 0-.166-.467.5.5 0 0 0-.364-.142m5.856-.696H7.608a.67.67 0 0 0-.667.667v1.952h10.127V3.729a.67.67 0 0 0-.676-.667M8.981 5.237c-.116-.165-.184-.377-.28-.531a.27.27 0 0 0-.271-.155h-.27v.309c0 .146.047.33.134.377h-.637c.087-.049.135-.231.135-.377v-.975a.5.5 0 0 0-.135-.385h.888a1.3 1.3 0 0 1 .483.048.46.46 0 0 1 .28.464.437.437 0 0 1-.4.444.7.7 0 0 1 .28.348 1 1 0 0 0 .309.435Zm2.155-.156a.88.88 0 0 1-.6.2.9.9 0 0 1-.6-.2.89.89 0 0 1-.31-.714.91.91 0 0 1 .31-.716 1.03 1.03 0 0 1 1.2 0 .9.9 0 0 1 .309.716.89.89 0 0 1-.309.714m1.855.156h-1.3a.48.48 0 0 0 .136-.377v-.977a.52.52 0 0 0-.136-.386h.628a.56.56 0 0 0-.125.386v1.073h.338a.65.65 0 0 0 .521-.164Zm1.566.01h-1.294a.5.5 0 0 0 .137-.387v-.977a.52.52 0 0 0-.136-.386h.628a.5.5 0 0 0-.136.386v1.073h.344a.62.62 0 0 0 .521-.164Zm1.025.018a1.6 1.6 0 0 1-.648-.125v-.416a.6.6 0 0 0 .184.155.95.95 0 0 0 .463.121c.241 0 .386-.107.386-.262 0-.184-.184-.213-.464-.25-.357-.048-.55-.213-.55-.5s.28-.512.676-.512a1.3 1.3 0 0 1 .57.116v.377a.45.45 0 0 0-.212-.155 1.2 1.2 0 0 0-.357-.058c-.193 0-.309.077-.309.174 0 .164.155.183.493.251s.541.213.532.512c-.009.34-.28.572-.764.572M8.566 3.778h-.405v.492h.405c.221 0 .367-.067.367-.242s-.146-.25-.367-.25M12.159 7.9a2.25 2.25 0 0 0-1.305-.357H9.319V11.6c2.822-.048 3.508-1.314 3.507-2.308a1.64 1.64 0 0 0-.667-1.392m-.878.831v2.289a4.5 4.5 0 0 1-1.081.28V9.276a1.14 1.14 0 0 0-.589-1.15h2.437a1.24 1.24 0 0 1 .453.609Z"/></svg>

<?xml version="1.0" encoding="UTF-8"?>
<svg width="24px" fill="#44739e" height="24px" viewBox="0 0 24 24" version="1.1" xmlns="http://www.w3.org/2000/svg" xmlns:xlink="http://www.w3.org/1999/xlink">
            <path d="m 10.411,20.213 a 0.475,0.475 0 0 0 0.347,-0.144 0.556,0.556 0 0 0 0.146,-0.434 0.606,0.606 0 0 0 -0.146,-0.446 0.473,0.473 0 0 0 -0.347,-0.134 0.484,0.484 0 0 0 -0.358,0.134 0.6,0.6 0 0 0 -0.145,0.446 0.568,0.568 0 0 0 0.145,0.434 0.486,0.486 0 0 0 0.358,0.144 z m -3.47,0.057 a 0.667,0.667 0 0 0 0.667,0.666 h 8.784 A 0.668,0.668 0 0 0 17.068,20.27 V 18.319 H 6.941 Z M 14.877,18.8 H 16.2 v 0.366 a 0.712,0.712 0 0 0 -0.473,-0.1 H 15.35 v 0.415 h 0.676 l -0.039,0.252 h -0.638 v 0.454 h 0.425 c 0.213,0 0.4,-0.009 0.495,-0.136 l -0.058,0.407 H 14.877 A 0.506,0.506 0 0 0 15,20.1 V 19.171 A 0.522,0.522 0 0 0 14.877,18.8 Z m -0.844,-0.039 a 1.013,1.013 0 0 1 0.492,0.1 v 0.358 a 0.63,0.63 0 0 0 -0.5,-0.175 0.588,0.588 0 0 0 0,1.17 0.761,0.761 0 0 0 0.56,-0.184 l -0.059,0.378 a 1.205,1.205 0 0 1 -0.491,0.086 0.871,0.871 0 0 1 -0.63,-1.517 0.927,0.927 0 0 1 0.628,-0.213 z M 11.889,18.8 a 0.119,0.119 0 0 0 -0.058,0.077 c -0.009,0.048 0.03,0.107 0.069,0.164 l 0.327,0.482 0.33,-0.473 a 0.319,0.319 0 0 0 0.057,-0.154 c 0.011,-0.038 -0.01,-0.067 -0.048,-0.1 h 0.6 a 1.255,1.255 0 0 0 -0.3,0.329 l -0.493,0.7 V 20.1 a 0.485,0.485 0 0 0 0.125,0.357 h -0.6 A 0.485,0.485 0 0 0 12.023,20.1 V 19.829 L 11.48,19.067 A 0.61,0.61 0 0 0 11.22,18.806 Z M 9.84,18.945 a 0.866,0.866 0 0 1 1.43,0.687 0.88,0.88 0 0 1 -1.43,0.675 0.839,0.839 0 0 1 -0.3,-0.675 0.887,0.887 0 0 1 0.3,-0.684 z M 7.666,18.8 h 0.841 a 1.513,1.513 0 0 1 0.464,0.038 0.449,0.449 0 0 1 0.271,0.455 0.424,0.424 0 0 1 -0.387,0.416 c 0.116,0.048 0.184,0.173 0.262,0.328 a 1.019,1.019 0 0 0 0.3,0.425 L 8.924,20.452 C 8.819,20.298 8.751,20.095 8.664,19.952 A 0.285,0.285 0 0 0 8.394,19.797 H 8.139 v 0.3 a 0.521,0.521 0 0 0 0.126,0.367 h -0.6 A 0.521,0.521 0 0 0 7.791,20.097 V 19.168 A 0.474,0.474 0 0 0 7.666,18.8 Z m 1.208,0.505 c 0,-0.173 -0.135,-0.232 -0.348,-0.232 H 8.139 v 0.464 h 0.387 c 0.213,0 0.348,-0.068 0.348,-0.232 z M 16.392,2 H 7.609 A 1.728,1.728 0 0 0 5.879,3.729 V 20.27 A 1.728,1.728 0 0 0 7.609,22 h 8.783 a 1.728,1.728 0 0 0 1.729,-1.73 V 3.729 A 1.728,1.728 0 0 0 16.392,2 Z m 1.149,18.27 a 1.143,1.143 0 0 1 -1.149,1.139 H 7.609 A 1.142,1.142 0 0 1 6.468,20.27 V 3.729 A 1.131,1.131 0 0 1 6.606,3.186 C 6.624,3.154 6.643,3.122 6.663,3.092 6.683,3.062 6.706,3.033 6.729,3.004 6.752,2.975 6.777,2.949 6.803,2.923 A 1.137,1.137 0 0 1 6.972,2.784 1.123,1.123 0 0 1 7.165,2.684 C 7.2,2.669 7.234,2.657 7.265,2.645 A 1.149,1.149 0 0 1 7.604,2.594 h 8.783 a 1.144,1.144 0 0 1 1.149,1.14 z M 17.066,6.154 H 6.941 V 17.846 H 17.066 Z M 11.87,17.13 H 9.61 a 1.149,1.149 0 0 0 0.589,-1.149 v -3.574 a 8.961,8.961 0 0 0 1.082,-0.174 v 0.542 c 0.156,-0.011 0.309,-0.011 0.455,-0.03 0.1,0.193 0.193,0.4 0.279,0.6 -0.241,0.02 -0.483,0.029 -0.734,0.038 v 2.6 a 1.163,1.163 0 0 0 0.589,1.147 z m 0.418,-1.18 a 1.445,1.445 0 0 0 0.327,-1.285 5.764,5.764 0 0 0 -1.131,-2.724 8.711,8.711 0 0 1 -2.165,0.262 v 2.6 a 1.153,1.153 0 0 0 0.589,1.148 H 7.648 A 1.137,1.137 0 0 0 8.237,14.8 V 8.1 A 1.151,1.151 0 0 0 7.648,6.951 H 10.9 a 3.6,3.6 0 0 1 2.039,0.474 2.253,2.253 0 0 1 0.985,1.864 2.594,2.594 0 0 1 -1.553,2.311 c -0.037,0.019 -0.066,0.03 -0.105,0.048 a 7.683,7.683 0 0 1 1.487,3.324 1.658,1.658 0 0 0 0.532,0.976 z m 2.251,1.174 a 1.4,1.4 0 0 0 0.327,-1.276 5.828,5.828 0 0 0 -1.226,-2.8 c -0.068,0.018 -0.136,0.038 -0.2,0.057 -0.086,-0.2 -0.193,-0.416 -0.3,-0.619 a 2.093,2.093 0 0 0 1.651,-2.009 1.652,1.652 0 0 0 -0.609,-1.353 2.521,2.521 0 0 0 -0.241,-0.909 2.772,2.772 0 0 1 0.966,0.377 2.266,2.266 0 0 1 0.985,1.864 2.57,2.57 0 0 1 -1.478,2.27 7.628,7.628 0 0 1 1.594,3.422 1.773,1.773 0 0 0 0.532,0.975 z M 10.536,3.758 A 0.513,0.513 0 0 0 10.169,3.903 0.629,0.629 0 0 0 10.015,4.367 0.6,0.6 0 0 0 10.169,4.831 0.516,0.516 0 0 0 10.536,4.976 0.51,0.51 0 0 0 10.902,4.831 0.6,0.6 0 0 0 11.066,4.367 0.627,0.627 0 0 0 10.9,3.9 0.5,0.5 0 0 0 10.536,3.758 Z M 16.392,3.062 H 7.608 A 0.669,0.669 0 0 0 6.941,3.729 V 5.681 H 17.068 V 3.729 A 0.669,0.669 0 0 0 16.392,3.062 Z M 8.981,5.237 C 8.865,5.072 8.797,4.86 8.701,4.706 A 0.271,0.271 0 0 0 8.43,4.551 H 8.16 V 4.86 c 0,0.146 0.047,0.33 0.134,0.377 H 7.657 C 7.744,5.188 7.792,5.006 7.792,4.86 V 3.885 A 0.5,0.5 0 0 0 7.657,3.5 h 0.888 a 1.327,1.327 0 0 1 0.483,0.048 0.457,0.457 0 0 1 0.28,0.464 0.437,0.437 0 0 1 -0.4,0.444 0.7,0.7 0 0 1 0.28,0.348 1,1 0 0 0 0.309,0.435 z m 2.155,-0.156 a 0.876,0.876 0 0 1 -0.6,0.2 0.9,0.9 0 0 1 -0.6,-0.2 0.886,0.886 0 0 1 -0.31,-0.714 0.911,0.911 0 0 1 0.31,-0.716 1.026,1.026 0 0 1 1.2,0 0.909,0.909 0 0 1 0.309,0.716 0.887,0.887 0 0 1 -0.309,0.714 z m 1.855,0.156 h -1.3 A 0.482,0.482 0 0 0 11.827,4.86 V 3.883 A 0.518,0.518 0 0 0 11.691,3.497 h 0.628 a 0.559,0.559 0 0 0 -0.125,0.386 v 1.073 h 0.338 a 0.651,0.651 0 0 0 0.521,-0.164 z m 1.566,0.01 H 13.263 A 0.508,0.508 0 0 0 13.4,4.86 V 3.883 A 0.518,0.518 0 0 0 13.264,3.497 h 0.628 A 0.514,0.514 0 0 0 13.756,3.883 V 4.956 H 14.1 a 0.616,0.616 0 0 0 0.521,-0.164 z m 1.025,0.018 A 1.555,1.555 0 0 1 14.934,5.14 V 4.724 A 0.582,0.582 0 0 0 15.118,4.879 0.952,0.952 0 0 0 15.581,5 c 0.241,0 0.386,-0.107 0.386,-0.262 0,-0.184 -0.184,-0.213 -0.464,-0.25 -0.357,-0.048 -0.55,-0.213 -0.55,-0.5 0,-0.287 0.28,-0.512 0.676,-0.512 a 1.278,1.278 0 0 1 0.57,0.116 V 3.969 A 0.452,0.452 0 0 0 15.987,3.814 1.145,1.145 0 0 0 15.63,3.756 c -0.193,0 -0.309,0.077 -0.309,0.174 0,0.164 0.155,0.183 0.493,0.251 0.338,0.068 0.541,0.213 0.532,0.512 -0.009,0.34 -0.28,0.572 -0.764,0.572 z M 8.566,3.778 H 8.161 V 4.27 h 0.405 c 0.221,0 0.367,-0.067 0.367,-0.242 0,-0.175 -0.146,-0.25 -0.367,-0.25 z M 12.159,7.9 A 2.253,2.253 0 0 0 10.854,7.543 H 9.319 V 11.6 c 2.822,-0.048 3.508,-1.314 3.507,-2.308 A 1.643,1.643 0 0 0 12.159,7.9 Z M 11.281,8.731 V 11.02 A 4.544,4.544 0 0 1 10.2,11.3 V 9.276 A 1.136,1.136 0 0 0 9.611,8.126 h 2.437 a 1.239,1.239 0 0 1 0.453,0.609 z"/>
 
</svg>
